X:663
%%etbk:tnset id:515,pos:2,rep:3x,ant:
%%etbk:wsite https://thesession.org/tunes/1688
%%etbk:color #ffe6e6
%%etbk:pldat 2016-09-10T15:12,2016-08-12T17:17,2016-08-04T18:35,2016-07-15T14:47,2016-06-12T13:19,2016-05-24T15:25,2016-05-23T18:08,2016-04-20T16:07,2016-04-12T17:13,2016-04-11T18:37,2016-03-23T17:40,2016-03-20T10:52,2016-02-13T15:22,2016-02-08T18:34,2016-01-26T18:03,2016-01-24T15:23,2016-01-20T17:36,2016-01-19T17:28,2016-01-17T14:14,2016-01-16T16:04,2016-01-12T17:47,2016-01-04T19:29,2016-01-02T14:47,2015-12-31T15:29,2015-08-14T16:54,2015-08-14T16:48,2015-07-08T15:53,2015-06-10T18:57,2015-05-19T15:39,2015-05-05T18:19,2015-04-26T13:48,2015-04-08T15:54,2015-04-02T16:27
T: Islay Rant
Z: Piano Box Version by Martin Fleischmann
H: Created 2015-03-30 /  Last Modified 2015-12-31
R: reel
M: 4/4
L: 1/8
K: Ador
|:"am"!1!E!3!AA!2!G !1!ABcd|!5!e2 ed eAA!4!f|"G"!5!g2 gf g!1!ABA|!2!GABG !5!cAB!2!G|
"am"EAAG ABcd|e2 ed eAAf|"G"g2 gf gAB!1!A|1 !1!GABG "am"A3 G:|2 !1!GABG "am"A3 g||
|:"am"!4!a2 ab a!3!g!1!e!2!d|!3!e2AA !3!eA!4!fA|"G"!5!g2 gf gABA|GABG cABG|
"A"!3!^cA (3AAA cAdA|eA (3AAA !4!eA!4!fA|"G"!5!g2 gf gABA|1 GABG "am"A3 g:|2 GABG "am"A3 G||


